X: 29964
T: Obamas In The White House
R: jig
M: 6/8
K: Gmajor
|:dd/e/f|g2 g gdB|c2 e edc|BGB gdB|A3 dd/e/f|
gba gdB|c2 G edc|BGg dcF|G3:|
|:d2 c|BGD dBG|cGE edc|BGG dGG|F3 d2 c|
[1 B2 G dBG|c2 G edc|BGg dcF|G3:|
[2 B2 b bag|c2 g gfe|dg/a/b [ac'][fa][df]|g3||

